public/fonts/icons/not-graded.svg

<?xml version="1.0" encoding="utf-8"?>

<!DOCTYPE svg PUBLIC "-//W3C//DTD SVG 1.1//EN" "http://www.w3.org/Graphics/SVG/1.1/DTD/svg11.dtd">
<svg version="1.1" xmlns="http://www.w3.org/2000/svg" xmlns:xlink="http://www.w3.org/1999/xlink" width="32" height="32" viewBox="0 0 32 32">
<g>
</g>
	<path d="M15.999 0.289c-8.676 0-15.71 7.033-15.71 15.711s7.034 15.71 15.71 15.71c8.677 0 15.711-7.034 15.711-15.71s-7.034-15.711-15.711-15.711zM15.999 27.881c-6.561 0-11.881-5.32-11.881-11.881 0-2.665 0.877-5.125 2.359-7.106l8.1 8.1c-0.947 1.89-1.436 3.275-1.436 3.275l-2.424-4.667-4.998 3.011c2.12 0.752 5.149 3.162 7.725 6.323 0.751-1.368 2.085-3.436 3.643-5.432l6.018 6.018c-1.982 1.481-4.442 2.359-7.106 2.359zM25.522 23.105l-6.206-6.206c1.63-1.712 3.315-3.031 4.73-3.258-1.061-2.409-1.451-3.88-1.3-6.138-2.681 1.365-4.837 3.93-6.421 6.405l-7.431-7.431c1.982-1.481 4.441-2.358 7.105-2.358 6.562 0 11.881 5.319 11.881 11.881 0 2.664-0.877 5.123-2.358 7.105z" fill="#000000"></path>
</svg>

<svg xmlns="http://www.w3.org/2000/svg" width="32" height="32" viewBox="0 0 32 32"><title>Not Graded</title><path d="M16 .29C7.322.29.29 7.32.29 16S7.322 31.71 16 31.71c8.676 0 15.71-7.034 15.71-15.71S24.676.29 16 .29zm0 27.59C9.437 27.88 4.117 22.56 4.117 16c0-2.665.877-5.125 2.36-7.106l8.1 8.1c-.948 1.89-1.437 3.275-1.437 3.275L10.718 15.6l-4.998 3.01c2.12.753 5.148 3.163 7.724 6.324.75-1.368 2.085-3.436 3.643-5.432l6.018 6.018A11.832 11.832 0 0 1 16 27.882zm9.522-4.775L19.316 16.9c1.63-1.713 3.315-3.032 4.73-3.26-1.06-2.408-1.45-3.88-1.3-6.137-2.68 1.365-4.837 3.93-6.42 6.405l-7.432-7.43A11.828 11.828 0 0 1 16 4.117c6.56 0 11.88 5.32 11.88 11.882 0 2.664-.877 5.123-2.358 7.105z"/></svg>
